src/components/Icon/assets/tune.svg

<svg width="24" height="24" viewBox="0 0 24 24" fill="none" xmlns="http://www.w3.org/2000/svg">
<g id="tune">
<path id="Combined Shape" fill-rule="evenodd" clip-rule="evenodd" d="M16.0002 6.00009C15.4492 6.00009 15.0002 5.55109 15.0002 5.00009C15.0002 4.44909 15.4492 4.00009 16.0002 4.00009C16.5512 4.00009 17.0002 4.44909 17.0002 5.00009C17.0002 5.55109 16.5512 6.00009 16.0002 6.00009ZM18.8162 4.00009C18.4022 2.83809 17.3022 2.00009 16.0002 2.00009C14.6982 2.00009 13.5992 2.83809 13.1852 4.00009H3.00021V6.00009H13.1842C13.5992 7.16209 14.6982 8.00009 16.0002 8.00009C17.3022 8.00009 18.4022 7.16209 18.8162 6.00009H21.0002V4.00009H18.8162ZM8.00021 13.0001C7.44921 13.0001 7.00021 12.5511 7.00021 12.0001C7.00021 11.4491 7.44921 11.0001 8.00021 11.0001C8.55121 11.0001 9.00021 11.4491 9.00021 12.0001C9.00021 12.5511 8.55121 13.0001 8.00021 13.0001ZM8.00021 9.00009C6.69821 9.00009 5.59921 9.83809 5.18521 11.0001H3.00021V13.0001H5.18421C5.59921 14.1621 6.69821 15.0001 8.00021 15.0001C9.30221 15.0001 10.4022 14.1621 10.8162 13.0001H21.0002V11.0001H10.8162C10.4022 9.83809 9.30221 9.00009 8.00021 9.00009ZM15.0002 19.0001C15.0002 19.5511 15.4492 20.0001 16.0002 20.0001C16.5512 20.0001 17.0002 19.5511 17.0002 19.0001C17.0002 18.4491 16.5512 18.0001 16.0002 18.0001C15.4492 18.0001 15.0002 18.4491 15.0002 19.0001ZM13.1852 18.0001C13.5992 16.8381 14.6982 16.0001 16.0002 16.0001C17.3022 16.0001 18.4022 16.8381 18.8162 18.0001H21.0002V20.0001H18.8162C18.4022 21.1621 17.3022 22.0001 16.0002 22.0001C14.6982 22.0001 13.5992 21.1621 13.1842 20.0001H3.00021V18.0001H13.1852Z" fill="#242428"/>
</g>
</svg>

<svg xmlns="http://www.w3.org/2000/svg" width="24" height="24" fill="none" viewBox="0 0 24 24">
    <path fill="#65676A" fill-rule="evenodd" d="M16 6c-.55 0-1-.449-1-1 0-.55.45-1 1-1 .551 0 1 .45 1 1 0 .551-.449 1-1 1zm2.816-2C18.402 2.838 17.302 2 16 2c-1.302 0-2.4.838-2.815 2H3v2h10.184C13.6 7.162 14.698 8 16 8c1.302 0 2.402-.838 2.816-2H21V4h-2.184zM8 13c-.55 0-1-.449-1-1 0-.55.45-1 1-1 .551 0 1 .45 1 1 0 .551-.449 1-1 1zm0-4c-1.302 0-2.4.838-2.815 2H3v2h2.184C5.6 14.162 6.698 15 8 15c1.302 0 2.402-.838 2.816-2H21v-2H10.816C10.402 9.838 9.302 9 8 9zm7 10c0 .551.45 1 1 1 .551 0 1-.449 1-1 0-.55-.449-1-1-1-.55 0-1 .45-1 1zm-1.815-1c.414-1.162 1.513-2 2.815-2s2.402.838 2.816 2H21v2h-2.184c-.414 1.162-1.514 2-2.816 2-1.302 0-2.4-.838-2.816-2H3v-2h10.185z" clip-rule="evenodd"/>
</svg>
